src/actions/symbolic/display-enhance-stroke-alt-symbolic.svg

<svg width="16" height="16" version="1.1" viewBox="0 0 16 16" xmlns="http://www.w3.org/2000/svg">
 <path d="m6.4941 4.6621-3.2637 3.6016-0.33594 0.37109 0.74023 0.67188 0.33594-0.37109 2.5352-2.7969 3 3.1992 3.1328-3.459c-0.34377-0.086573-0.67239-0.22487-0.97461-0.41016l-2.1699 2.3926z" fill="#363636"/>
 <path d="m13.5 0a2.5 2.5 0 0 0-2.5 2.5 2.5 2.5 0 0 0 2.5 2.5 2.5 2.5 0 0 0 2.5-2.5 2.5 2.5 0 0 0-2.5-2.5zm0 1a1.5 1.5 0 0 1 1.5 1.5 1.5 1.5 0 0 1-1.5 1.5 1.5 1.5 0 0 1-1.5-1.5 1.5 1.5 0 0 1 1.5-1.5z" fill="#363636" opacity=".5"/>
 <path d="m3 1c-1.662 0-3 1.338-3 3v6c0 1.662 1.338 3 3 3h10c1.662 0 3-1.338 3-3v-5.0625a3.5 3.5 0 0 1-1 0.7207v4.3418c0 1.108-0.892 2-2 2h-10c-1.108 0-2-0.892-2-2v-6c0-1.108 0.892-2 2-2h7.0352a3.5 3.5 0 0 1 0.30664-1z" fill="#363636"/>
 <rect x="4" y="14" width="8" height="1" rx=".5" ry=".5" fill="#363636" stroke-linecap="round" stroke-linejoin="round" stroke-width="1.0016"/>
</svg>

<svg xmlns="http://www.w3.org/2000/svg" width="16" height="16">
    <path fill="#050505" fill-opacity=".7" d="M6.494 4.662 3.23 8.264l-.336.37.74.673.337-.371 2.535-2.797 3 3.199 3.133-3.46a3.5 3.5 0 0 1-.975-.41l-2.17 2.393z"/>
    <path fill="#050505" d="M13.5 0A2.5 2.5 0 0 0 11 2.5 2.5 2.5 0 0 0 13.5 5 2.5 2.5 0 0 0 16 2.5 2.5 2.5 0 0 0 13.5 0zm0 1A1.5 1.5 0 0 1 15 2.5 1.5 1.5 0 0 1 13.5 4 1.5 1.5 0 0 1 12 2.5 1.5 1.5 0 0 1 13.5 1z" opacity=".5"/>
    <path fill="#050505" fill-opacity=".7" d="M3 1C1.338 1 0 2.338 0 4v6c0 1.662 1.338 3 3 3h10c1.662 0 3-1.338 3-3V4.938a3.5 3.5 0 0 1-1 .72V10c0 1.108-.892 2-2 2H3c-1.108 0-2-.892-2-2V4c0-1.108.892-2 2-2h7.035a3.5 3.5 0 0 1 .307-1z"/>
    <rect width="8" height="1" x="4" y="14" fill="#050505" fill-opacity=".7" rx=".5" ry=".5"/>
</svg>
